src/icons/option.svg

<svg xmlns="http://www.w3.org/2000/svg" width="512" height="512" viewBox="0 0 512 512">
    <path d="M296 129.5c0-22.002-17.998-40-40-40s-40 17.998-40 40 17.998 40 40 40 40-17.998 40-40zm0 240c0-22.002-17.998-40-40-40s-40 17.998-40 40 17.998 40 40 40 40-17.998 40-40zm0-120c0-22.002-17.998-40-40-40s-40 17.998-40 40 17.998 40 40 40 40-17.998 40-40z"/>
</svg>

<?xml version="1.0" encoding="UTF-8"?>
<svg width="512px" height="512px" viewBox="0 0 512 512" version="1.1" xmlns="http://www.w3.org/2000/svg" xmlns:xlink="http://www.w3.org/1999/xlink">
    <!-- Generator: Sketch 62 (91390) - https://sketch.com -->
    <title>option</title>
    <desc>Created with Sketch.</desc>
    <g id="option" stroke="none" stroke-width="1" fill="none" fill-rule="evenodd">
        <path d="M296,129.5 C296,107.498 278.002,89.5 256,89.5 C233.998,89.5 216,107.498 216,129.5 C216,151.502 233.998,169.5 256,169.5 C278.002,169.5 296,151.502 296,129.5 Z M296,369.5 C296,347.498 278.002,329.5 256,329.5 C233.998,329.5 216,347.498 216,369.5 C216,391.502 233.998,409.5 256,409.5 C278.002,409.5 296,391.502 296,369.5 Z M296,249.5 C296,227.498 278.002,209.5 256,209.5 C233.998,209.5 216,227.498 216,249.5 C216,271.502 233.998,289.5 256,289.5 C278.002,289.5 296,271.502 296,249.5 Z" id="Shape" fill="#000000" fill-rule="nonzero"></path>
    </g>
</svg>
